images/icons/48/icon-api-reference.svg

<svg xmlns="http://www.w3.org/2000/svg" width="48" height="48" viewBox="0 0 48 48">
  <g fill="none">
    <path fill="#44D7B6" d="M24,48 C0.185166005,48 0,37.254834 0,24 C0,10.745166 0.185166005,0 24,0 C47.814834,0 48,10.745166 48,24 C48,37.254834 47.814834,48 24,48 Z"/>
    <path fill="#FFF" d="M13,30 C14.1045695,30 15,30.8954305 15,32 C15,33.0543618 14.1841222,33.9181651 13.1492623,33.9945143 L13,34 L12.8507377,33.9945143 C11.8158778,33.9181651 11,33.0543618 11,32 C11,30.8954305 11.8954305,30 13,30 Z M36,31 C36.5522847,31 37,31.4477153 37,32 C37,32.5522847 36.5522847,33 36,33 L36,33 L19,33 C18.4477153,33 18,32.5522847 18,32 C18,31.4477153 18.4477153,31 19,31 L19,31 Z M13,22 C14.1045695,22 15,22.8954305 15,24 C15,25.0543618 14.1841222,25.9181651 13.1492623,25.9945143 L13,26 L12.8507377,25.9945143 C11.8158778,25.9181651 11,25.0543618 11,24 C11,22.8954305 11.8954305,22 13,22 Z M36,23 C36.5522847,23 37,23.4477153 37,24 C37,24.5128358 36.6139598,24.9355072 36.1166211,24.9932723 L36,25 L19,25 C18.4477153,25 18,24.5522847 18,24 C18,23.4871642 18.3860402,23.0644928 18.8833789,23.0067277 L19,23 L36,23 Z M13,14 C14.0543618,14 14.9181651,14.8158778 14.9945143,15.8507377 L15,16 L14.9945143,16.1492623 C14.9219826,17.1323792 14.1387735,17.9178648 13.1566505,17.9939555 L13,18 L12.8507377,17.9945143 C11.8676208,17.9219826 11.0821352,17.1387735 11.0060445,16.1566505 L11,16 L11.0054857,15.8507377 C11.0818349,14.8158778 11.9456382,14 13,14 Z M36,15 C36.5522847,15 37,15.4477153 37,16 C37,16.5128358 36.6139598,16.9355072 36.1166211,16.9932723 L36,17 L19,17 C18.4477153,17 18,16.5522847 18,16 C18,15.4871642 18.3860402,15.0644928 18.8833789,15.0067277 L19,15 L36,15 Z"/>
  </g>
</svg>

<svg xmlns="http://www.w3.org/2000/svg" width="48" height="48"><g fill="none"><path fill="#44D7B6" d="M24 48C.185 48 0 37.255 0 24S.185 0 24 0s24 10.745 24 24-.185 24-24 24z"/><path fill="#FFF" d="M13 30a2 2 0 01.15 3.995L13 34l-.15-.005A2 2 0 0113 30zm23 1a1 1 0 010 2H19a1 1 0 010-2zm-23-9a2 2 0 01.15 3.995L13 26l-.15-.005A2 2 0 0113 22zm23 1a1 1 0 01.117 1.993L36 25H19a1 1 0 01-.117-1.993L19 23h17zm-23-9a2 2 0 011.995 1.85L15 16l-.005.15a2 2 0 01-1.838 1.844L13 18l-.15-.005a2 2 0 01-1.844-1.838L11 16l.005-.15A2 2 0 0113 14zm23 1a1 1 0 01.117 1.993L36 17H19a1 1 0 01-.117-1.993L19 15h17z"/></g></svg>
